X: 30393
T: DEVANS' WALTZ No. 3.
C:
%R: waltz
B: Elias Howe "The Musician's Companion" Part 3 1844 p.39 #3
S: http://imslp.org/wiki/The_Musician's_Companion_(Howe,_Elias)
S: https://archive.org/stream/firstthirdpartof03howe/#page/66/mode/1up
Z: 2016 John Chambers <jc:trillian.mit.edu>
M: 3/8
L: 1/16
K: C
% - - - - - - - - - - - - - - - - - - - - - - - - -
(3ccc |\
c2e2g2 | c'4e2 | gfefag | g2e2 (3ccc |\
c2e2g2 | c'4g2 | bagfed | c4 z2 :|
(ef) |\
g2 gag^f | g2c'2e2 | f2 fgag | g2e2 ef |\
g2 gag^f | g2c'2e2 | gfefag | c4 z2 |]
% - - - - - - - - - - - - - - - - - - - - - - - - -
